X:3118
T:Johnny Leary's Polka
O:england
R:polka
M:2/4
L:1/8
K:D
ff/f/ ge|ff/f/ ge|fd ed|e/f/e/d/ BA|
ff/f/ ge|ff/f/ ge|fd e/d/c|1 df de:|2 df dB||
|:A>B AF|Af af|e>d ef/e/|dA B/c/d/B/|
A>B AF|Af af|ef gb|1 ef/e/ dB:|2 ef/e/ de||


